Numix/64/mimetypes/application-executable.svg

<?xml version="1.0" encoding="UTF-8" standalone="no"?>
<svg
   xmlns:dc="http://purl.org/dc/elements/1.1/"
   xmlns:cc="http://creativecommons.org/ns#"
   xmlns:rdf="http://www.w3.org/1999/02/22-rdf-syntax-ns#"
   xmlns:svg="http://www.w3.org/2000/svg"
   xmlns="http://www.w3.org/2000/svg"
   xmlns:sodipodi="http://sodipodi.sourceforge.net/DTD/sodipodi-0.dtd"
   xmlns:inkscape="http://www.inkscape.org/namespaces/inkscape"
   width="64px"
   height="64px"
   viewBox="0 0 64 64"
   version="1.1"
   id="svg2"
   inkscape:version="0.91 r13725"
   sodipodi:docname="application-executable.svg">
  <metadata
     id="metadata15">
    <rdf:RDF>
      <cc:Work
         rdf:about="">
        <dc:format>image/svg+xml</dc:format>
        <dc:type
           rdf:resource="http://purl.org/dc/dcmitype/StillImage" />
      </cc:Work>
    </rdf:RDF>
  </metadata>
  <defs
     id="defs13" />
  <sodipodi:namedview
     pagecolor="#ffffff"
     bordercolor="#666666"
     borderopacity="1"
     objecttolerance="10"
     gridtolerance="10"
     guidetolerance="10"
     inkscape:pageopacity="0"
     inkscape:pageshadow="2"
     inkscape:window-width="1920"
     inkscape:window-height="1013"
     id="namedview11"
     showgrid="false"
     inkscape:zoom="3.6875"
     inkscape:cx="-2.9830508"
     inkscape:cy="32"
     inkscape:window-x="0"
     inkscape:window-y="27"
     inkscape:window-maximized="1"
     inkscape:current-layer="svg2" />
  <path
     inkscape:connector-curvature="0"
     id="path5"
     d="M 10.742188,8 C 9.375,8 8,9.375 8,10.742188 l 0,42.59375 C 8,54.625 9.375,56 10.664062,56 l 42.671876,0 C 54.625,56 56,54.625 56,53.335938 L 56,10.664062 C 56,9.375 54.625,8 53.335938,8 Z m 0,0"
     style="fill:#eeeeee;fill-opacity:1;fill-rule:nonzero;stroke:none" />
  <path
     inkscape:connector-curvature="0"
     id="path7"
     d="M 31.101562,16.140625 C 28.429688,17 30.773438,20.976562 26.945312,22.921875 22.578125,25.148438 20.40625,19.53125 17.78125,23.539062 c -2.625,4.015626 3.617188,3.390626 3.445312,8.117188 -0.179687,4.71875 -6.359374,3.71875 -4.039062,7.882812 2.320312,4.164063 4.898438,-1.304687 9.09375,1.195313 4.195312,2.492187 0.179688,7.109375 5.125,7.265625 4.945312,0.148438 1.273438,-4.695312 5.648438,-6.921875 4.367187,-2.226563 6.539062,3.390625 9.164062,-0.617187 2.625,-4.015626 -3.617188,-3.390626 -3.445312,-8.109376 0.179687,-4.726562 6.359374,-3.71875 4.039062,-7.890624 -2.320312,-4.164063 -4.898438,1.304687 -9.09375,-1.1875 -4.195312,-2.5 -0.179688,-7.117188 -5.125,-7.265626 -0.617188,-0.02344 -1.109375,0.01563 -1.492188,0.132813 z m 0.04688,12.023437 c 2.210937,-0.453124 4.375,0.898438 4.84375,3.023438 0.46875,2.117188 -0.9375,4.203125 -3.140626,4.648438 -2.210937,0.453124 -4.375,-0.898438 -4.84375,-3.023438 -0.46875,-2.117188 0.9375,-4.195312 3.140626,-4.648438 z m 0,0"
     style="fill:#888888;fill-opacity:1;fill-rule:nonzero;stroke:none" />
  <path
     inkscape:connector-curvature="0"
     id="path9"
     d="M 11.335938,8 C 10.445312,8 9.765625,8 8.867188,8.851562 8,9.640625 8,10.445312 8,11.335938 L 8,52.75 C 8,53.617188 7.980469,54.386719 8.847656,55.136719 9.84375,56 10.382812,56 11.25,56 l 41.5,0 c 0.867188,0 1.476562,0 2.445312,-0.875 C 56.019531,54.378906 56,53.617188 56,52.75 l 0,-41.5 C 56,10.382812 55.984375,9.652344 55.164062,8.859375 54.273438,8 53.617188,8 52.75,8 Z M 12,10 52.042969,10 c 0.390625,0 0.898437,0.234375 1.289062,0.625 0.390625,0.390625 0.625,0.898438 0.625,1.289062 l 0,40.128907 c 0,0.390625 -0.234375,0.898437 -0.625,1.289062 -0.390625,0.390625 -0.898437,0.625 -1.289062,0.625 l -40.085938,0 c -0.390625,0 -0.898437,-0.234375 -1.289062,-0.625 -0.390625,-0.390625 -0.625,-0.898437 -0.625,-1.289062 L 10,12 c 0,-0.445312 0.226562,-0.984375 0.625,-1.375 C 11.015625,10.226562 11.554688,10 12,10 Z m 0,0"
     style="fill:#a8a8a8;fill-opacity:1;fill-rule:nonzero;stroke:none" />
</svg>

<svg xmlns="http://www.w3.org/2000/svg" viewBox="0 0 64 64">
 <path d="M 10.742188,8 C 9.375,8 8,9.375 8,10.742188 l 0,42.59375 C 8,54.625 9.375,56 10.664062,56 l 42.671876,0 C 54.625,56 56,54.625 56,53.335938 L 56,10.664062 C 56,9.375 54.625,8 53.335938,8 Z m 0,0" style="fill:#eee;fill-opacity:1;stroke:none;fill-rule:nonzero"/>
 <path d="m 31.1 16.14 c -2.672 0.859 -0.328 4.836 -4.156 6.781 -4.367 2.227 -6.539 -3.391 -9.164 0.617 c -2.625 4.02 3.617 3.391 3.445 8.117 -0.18 4.719 -6.359 3.719 -4.04 7.883 2.32 4.164 4.898 -1.305 9.09 1.195 4.195 2.492 0.18 7.109 5.125 7.266 4.945 0.148 1.273 -4.695 5.648 -6.922 4.367 -2.227 6.539 3.391 9.164 -0.617 2.625 -4.02 -3.617 -3.391 -3.445 -8.109 0.18 -4.727 6.359 -3.719 4.04 -7.891 -2.32 -4.164 -4.898 1.305 -9.09 -1.188 -4.195 -2.5 -0.18 -7.117 -5.125 -7.266 -0.617 -0.023 -1.109 0.016 -1.492 0.133 z m 0.047 12.02 c 2.211 -0.453 4.375 0.898 4.844 3.02 0.469 2.117 -0.938 4.203 -3.141 4.648 -2.211 0.453 -4.375 -0.898 -4.844 -3.02 -0.469 -2.117 0.938 -4.195 3.141 -4.648 z m 0 0" style="fill:#888;fill-opacity:1;stroke:none;fill-rule:nonzero"/>
 <path d="m 11.336 8 c -0.891 0 -1.57 0 -2.469 0.852 -0.867 0.789 -0.867 1.594 -0.867 2.484 l 0 41.41 c 0 0.867 -0.02 1.637 0.848 2.387 0.996 0.863 1.535 0.863 2.402 0.863 l 41.5 0 c 0.867 0 1.477 0 2.445 -0.875 c 0.824 -0.746 0.805 -1.508 0.805 -2.375 l 0 -41.5 c 0 -0.867 -0.016 -1.598 -0.836 -2.391 -0.891 -0.859 -1.547 -0.859 -2.414 -0.859 m -40.75 2 40.04 0 c 0.391 0 0.898 0.234 1.289 0.625 0.391 0.391 0.625 0.898 0.625 1.289 l 0 40.13 c 0 0.391 -0.234 0.898 -0.625 1.289 -0.391 0.391 -0.898 0.625 -1.289 0.625 l -40.09 0 c -0.391 0 -0.898 -0.234 -1.289 -0.625 -0.391 -0.391 -0.625 -0.898 -0.625 -1.289 l -0.043 -40.04 c 0 -0.445 0.227 -0.984 0.625 -1.375 c 0.391 -0.398 0.93 -0.625 1.375 -0.625 m 0 0" style="fill:#a8a8a8;fill-opacity:1;stroke:none;fill-rule:nonzero"/>
</svg>
